assets/symbols/mulberry/roller_blind.svg

<svg height="850.394" viewBox="0 0 850.394 850.394" width="850.394" xmlns="http://www.w3.org/2000/svg"><path d="m703.96 600.42v51.3h-61.01l.1-51.3zm0-460.96v51.17h-60.06l.1-48.63v-2.54h59.9z" fill="#fff"/><path d="m624.67 772.14 18.09-27.9 1.51-2.34 22.45 18.14-19.61 30.23z" fill="#0d72ba"/><path d="m141.56 395.59h501.92l-.11 51.18h-501.81z" fill="#fff"/><path d="m703.9 139.46-562.34-6v6h-.01v-83.11h562.35z" fill="#0d72ba"/><g fill="#fff"><path d="m643.48 395.59h-501.92v-57.3l502.02 5.36zm-.64 306.65-501.28-5.35v-45.17h501.39zm1.16-562.78h-502.44v-6l562.34 6zm59.96 51.17v153.66l-60.38-.64.32-153.02zm0 358.62v51.17h-60.91l.11-51.17zm0-204.96v51.3h-60.48l.1-51.94zm-60.8 204.96h-501.6v-51.18h501.7z"/><path d="m643.9 190.63h-502.34v-51.17h502.44v2.54zm60.06 256.14v51.3h-60.7l.11-51.3z"/><path d="m643.26 498.07h-501.7v-51.3h501.81zm60.7 153.65v51.17l-61.12-.65.11-50.52zm-60.91-51.3h-501.49v-51.17h501.6zm.53-256.77-502.02-5.36v-147.66h502.34zm60.38 51.94v51.18h-60.59l.11-51.18zm-562.4 204.83h501.49l-.1 51.3h-501.39zm562.4-102.35v51.18h-60.8l.1-51.18z"/></g><g fill="none" stroke="#231f20" stroke-width="21"><path d="m703.9 139.46h-562.35v-83.11h562.35z"/><path d="m642.84 702.24-501.28-5.35v-563.43l562.34 6h.06v563.43zm4.27 88.03-22.44-18.13 18.09-27.9 1.51-2.34 22.45 18.14z"/><path d="m644 142-.1 48.63-.32 153.02-.1 51.94-.11 51.18-.11 51.3-.1 51.18-.11 51.17-.1 51.3-.11 50.52-.08 42-.01 2.88"/></g><path d="m0 0h850.394v850.394h-850.394z" fill="none"/></svg>

<svg xmlns="http://www.w3.org/2000/svg" width="850.394" height="850.394" viewBox="0 0 850.394 850.394" overflow="visible"><path fill="#fff" d="M703.96 600.42v51.3h-61.01l.1-51.3zM703.96 139.46v51.17H643.9L644 142v-2.54h59.9z"/><path fill="#0d72ba" d="M624.67 772.14l18.09-27.9 1.51-2.34 22.45 18.14-19.61 30.23z"/><path fill="#fff" d="M141.56 395.59h501.92l-.11 51.18H141.56z"/><path fill="#0d72ba" d="M703.9 139.46l-562.34-6v6h-.01V56.35H703.9z"/><path fill="#fff" d="M643.48 395.59H141.56v-57.3l502.02 5.36zM642.84 702.24l-501.28-5.35v-45.17h501.39zM644 139.46H141.56v-6l562.34 6zM703.96 190.63v153.66l-60.38-.64.32-153.02zM703.96 549.25v51.17h-60.91l.11-51.17zM703.96 344.29v51.3h-60.48l.1-51.94zM643.16 549.25h-501.6v-51.18h501.7z"/><path fill="#fff" d="M643.9 190.63H141.56v-51.17H644V142zM703.96 446.77v51.3h-60.7l.11-51.3z"/><path fill="#fff" d="M643.26 498.07h-501.7v-51.3h501.81zM703.96 651.72v51.17l-61.12-.65.11-50.52zM643.05 600.42H141.56v-51.17h501.6zM643.58 343.65l-502.02-5.36V190.63H643.9zM703.96 395.59v51.18h-60.59l.11-51.18zM141.56 600.42h501.49l-.1 51.3H141.56zM703.96 498.07v51.18h-60.8l.1-51.18z"/><g fill="none" stroke="#231f20" stroke-width="21"><path d="M703.9 139.46H141.55V56.35H703.9z"/><path d="M642.84 702.24l-501.28-5.35V133.46l562.34 6h.06v563.43zM647.11 790.27l-22.44-18.13 18.09-27.9 1.51-2.34 22.45 18.14z"/><path d="M644 142l-.1 48.63-.32 153.02-.1 51.94-.11 51.18-.11 51.3-.1 51.18-.11 51.17-.1 51.3-.11 50.52-.08 42-.01 2.88"/></g><path fill="none" d="M0 0h850.394v850.394H0z"/></svg>
